X:1005
T:Baille de Los Pollos (CT 036)
R:Panderu
C:Tradicional
S:Música Tradicional Asturiana, (C) Tello & Tito. Asturies, 2001.
S:http://pagina.de/MusTradAst <telloytito@asturies.org>
N:Canción de Baille de Los Pollos, transcrita en Muriellos, ayuntamiento de Quirós.
O:Muriellos (Quirós)
A:Asturies
Z:Cancioneru de Torner 036
M:2/4
L:1/8
Q:1/4=132
W:Si me llevan prisionero
W:no me llevan por ladrón;
W:me llevan por defender
W:a Don Carlos de Borbón.
W:
W:A Don Carlos de Borbón
W:y a su esposa Margarita,
W:la corona les daremos
W:todos juntos los carlistas.
K:C
GG
|BB cc|AA GG|BB cc|(A>G A2-)|A z GG|BB cc|A-A dd|BB cc|A3/2B//A// G2-|G z3 :||


